icons/mobile/24/svg/copy-24.svg

<svg width="24" height="24" viewBox="0 0 24 24" fill="none" xmlns="http://www.w3.org/2000/svg">
<path fill-rule="evenodd" clip-rule="evenodd" d="M14 7.0008C15.2094 7.0008 16.6947 7.08468 18.3691 7.36701C19.8696 7.62007 20.9999 8.9082 21 10.4539V17.5447C21 19.0635 19.9126 20.3714 18.4053 20.6277C17.1281 20.8449 15.6468 20.9998 14 20.9998C12.3532 20.9998 10.8719 20.8449 9.59473 20.6277C8.08736 20.3714 7 19.0635 7 17.5447V10.4559C7.00006 8.93714 8.08739 7.6292 9.59473 7.37287C10.8719 7.15571 12.3532 7.0008 14 7.0008ZM14 8.7508C12.463 8.7508 11.0804 8.89565 9.8877 9.09845C9.23112 9.21011 8.75006 9.78071 8.75 10.4559V17.5447C8.75 18.22 9.23109 18.7905 9.8877 18.9022C11.0804 19.105 12.463 19.2498 14 19.2498C15.537 19.2498 16.9196 19.105 18.1123 18.9022C18.7689 18.7905 19.25 18.22 19.25 17.5447V10.4539C19.2499 9.78575 18.7596 9.20752 18.0781 9.09259C16.5149 8.82903 15.1285 8.7508 14 8.7508Z" fill="black"/>
<path d="M5.59473 3.36994C8.48873 2.87794 11.4831 2.87708 14.3701 3.36408C15.53 3.56012 16.4454 4.36107 16.8174 5.40802C16.0725 5.33303 15.3232 5.29022 14.5723 5.27521C14.4243 5.18722 14.2601 5.11967 14.0801 5.08966C12.7371 4.86266 11.364 4.74787 10.001 4.74787C8.62798 4.74787 7.24367 4.86452 5.88867 5.09552C5.2298 5.20761 4.75099 5.77901 4.75098 6.45392V13.5438C4.75098 13.9647 4.95102 14.3298 5.25098 14.5838V16.5369C3.93098 16.1539 3.00098 14.9538 3.00098 13.5438V6.45392C3.00099 4.92302 4.09087 3.62604 5.59473 3.36994Z" fill="black"/>
</svg>

<!-- This Source Code Form is subject to the terms of the Mozilla Public
   - License, v. 2.0. If a copy of the MPL was not distributed with this
   - file, You can obtain one at http://mozilla.org/MPL/2.0/. -->
<svg xmlns="http://www.w3.org/2000/svg" width="24" height="24" fill="none" viewBox="0 0 24 24">
    <path fill="#000" fill-rule="evenodd" d="M14 7c1.21 0 2.695.085 4.37.367 1.5.253 2.63 1.541 2.63 3.087v7.09a3.12 3.12 0 0 1-2.595 3.084 26.3 26.3 0 0 1-8.81 0A3.12 3.12 0 0 1 7 17.545v-7.09a3.12 3.12 0 0 1 2.595-3.082A26 26 0 0 1 14 7m0 1.75c-1.537 0-2.92.146-4.112.348a1.37 1.37 0 0 0-1.138 1.358v7.089a1.37 1.37 0 0 0 1.138 1.357 24.5 24.5 0 0 0 8.224 0 1.37 1.37 0 0 0 1.138-1.357v-7.091a1.39 1.39 0 0 0-1.172-1.361A24.5 24.5 0 0 0 14 8.75" clip-rule="evenodd" />
    <path fill="#000" d="M5.595 3.37a26.4 26.4 0 0 1 8.775-.006 3.14 3.14 0 0 1 2.447 2.044 28 28 0 0 0-2.245-.133 1.4 1.4 0 0 0-.492-.185 24.6 24.6 0 0 0-8.191.006A1.37 1.37 0 0 0 4.75 6.454v7.09c0 .42.2.786.5 1.04v1.953A3.11 3.11 0 0 1 3 13.544v-7.09A3.115 3.115 0 0 1 5.594 3.37" />
</svg>
